assets/img/braze_icons/log-out-02-alt.svg

<svg fill="none" height="24" viewBox="0 0 24 24" width="24" xmlns="http://www.w3.org/2000/svg"><g fill="#801ed7"><path d="m8.13758 1.99993c.79539-.00044 1.38605-.00076 1.89772.13634 1.3803.36987 2.4585 1.44806 2.8284 2.82843.1371.51165.1368 1.10232.1364 1.8977v.5376c0 .56005 0 .84008-.109 1.05399-.0959.18816-.2489.34114-.4371.43702-.2139.10899-.4939.10899-1.0539.10899h-2.4001c-1.65685 0-3 1.3431-3 3s1.34315 3 3 3h2.4001c.56 0 .84 0 1.0539.109.1882.0959.3412.2488.4371.437.109.2139.109.4939.109 1.054v.5376c.0004.7953.0007 1.386-.1364 1.8977-.3699 1.3803-1.4481 2.4585-2.8284 2.8284-.51167.1371-1.10233.1368-1.89772.1363h-.67185c-.66979 0-1.22266 0-1.67527-.0309-.46928-.032-.90338-.1005-1.32119-.2736-.98012-.406-1.75881-1.1847-2.16479-2.1648-.17306-.4178-.24159-.8519-.27361-1.3212-.03088-.4526-.03088-1.0055-.03087-1.6752v-9.06862c-.00001-.66977-.00001-1.22265.03087-1.67524.03202-.46929.10055-.90339.27361-1.3212.40598-.98011 1.18468-1.75881 2.16479-2.16478.41781-.17307.85191-.2416 1.32119-.27362.45261-.03088 1.00548-.03087 1.67528-.03087z"/><path d="m15.2929 6.29289c.3905-.39052 1.0237-.39052 1.4142 0l5 5.00001c.3905.3905.3905 1.0237 0 1.4142l-5 5c-.3905.3905-1.0237.3905-1.4142 0s-.3905-1.0237 0-1.4142l3.2929-3.2929h-9.5858c-.55228 0-1-.4477-1-1s.44772-1 1-1h9.5858l-3.2929-3.29289c-.3905-.39053-.3905-1.02369 0-1.41422z"/></g></svg>

<svg width="24" height="24" viewBox="0 0 24 24" fill="none" xmlns="http://www.w3.org/2000/svg">
<path d="M8.13758 1.99993C8.93297 1.99949 9.52363 1.99917 10.0353 2.13627C11.4156 2.50614 12.4938 3.58433 12.8637 4.9647C13.0008 5.47635 13.0005 6.06702 13.0001 6.8624V7.4C13.0001 7.96005 13.0001 8.24008 12.8911 8.45399C12.7952 8.64215 12.6422 8.79513 12.454 8.89101C12.2401 9 11.9601 9 11.4001 9H9C7.34315 9 6 10.3431 6 12C6 13.6569 7.34315 15 9 15H11.4001C11.9601 15 12.2401 15 12.454 15.109C12.6422 15.2049 12.7952 15.3578 12.8911 15.546C13.0001 15.7599 13.0001 16.0399 13.0001 16.6V17.1376C13.0005 17.9329 13.0008 18.5236 12.8637 19.0353C12.4938 20.4156 11.4156 21.4938 10.0353 21.8637C9.52363 22.0008 8.93297 22.0005 8.13758 22L7.46573 22C6.79594 22 6.24307 22 5.79046 21.9691C5.32118 21.9371 4.88708 21.8686 4.46927 21.6955C3.48915 21.2895 2.71046 20.5108 2.30448 19.5307C2.13142 19.1129 2.06289 18.6788 2.03087 18.2095C1.99999 17.7569 1.99999 17.204 2 16.5343V7.46568C1.99999 6.79591 1.99999 6.24303 2.03087 5.79044C2.06289 5.32115 2.13142 4.88705 2.30448 4.46924C2.71046 3.48913 3.48916 2.71043 4.46927 2.30446C4.88708 2.13139 5.32118 2.06286 5.79046 2.03084C6.24307 1.99996 6.79594 1.99997 7.46574 1.99997L8.13758 1.99993Z" fill="#801ED7"/>
<path d="M15.2929 6.29289C15.6834 5.90237 16.3166 5.90237 16.7071 6.29289L21.7071 11.2929C22.0976 11.6834 22.0976 12.3166 21.7071 12.7071L16.7071 17.7071C16.3166 18.0976 15.6834 18.0976 15.2929 17.7071C14.9024 17.3166 14.9024 16.6834 15.2929 16.2929L18.5858 13H9C8.44772 13 8 12.5523 8 12C8 11.4477 8.44772 11 9 11H18.5858L15.2929 7.70711C14.9024 7.31658 14.9024 6.68342 15.2929 6.29289Z" fill="#801ED7"/>
</svg>
